packages/sources/icons/src/vitamix/close-circle-line.svg

<svg width="16" height="16" viewBox="0 0 16 16" fill="none" xmlns="http://www.w3.org/2000/svg">
<path fill-rule="evenodd" clip-rule="evenodd" d="M8 14.6667C4.318 14.6667 1.33333 11.682 1.33333 8C1.33333 4.318 4.318 1.33333 8 1.33333C11.682 1.33333 14.6667 4.318 14.6667 8C14.6667 11.682 11.682 14.6667 8 14.6667ZM8 13.3333C10.9455 13.3333 13.3333 10.9455 13.3333 7.99999C13.3333 5.05448 10.9455 2.66666 8 2.66666C5.05448 2.66666 2.66667 5.05448 2.66667 7.99999C2.66667 10.9455 5.05448 13.3333 8 13.3333ZM9.88534 5.1713L8 7.0573L6.11467 5.1713L5.17134 6.11463L7.05734 7.99997L5.17134 9.8853L6.11467 10.8286L8 8.94264L9.88534 10.8286L10.8287 9.8853L8.94267 7.99997L10.8287 6.11463L9.88534 5.1713Z" fill="#001018"/>
</svg>

<svg width="16" height="16" fill="none" xmlns="http://www.w3.org/2000/svg"><path fill-rule="evenodd" clip-rule="evenodd" d="M8 14.667A6.667 6.667 0 1 1 8 1.334a6.667 6.667 0 0 1 0 13.333zm0-1.334A5.333 5.333 0 1 0 8 2.667a5.333 5.333 0 0 0 0 10.666zm1.885-8.162L8 7.057 6.115 5.171l-.944.944L7.057 8 5.171 9.885l.944.944L8 8.943l1.885 1.886.944-.944L8.943 8l1.886-1.885-.944-.944z" fill="#001018"/></svg>
